src/assets/icons/food-drink,fancy,leaf.svg

<svg width="48" height="48" viewBox="0 0 48 48" fill="none" xmlns="http://www.w3.org/2000/svg">
<path opacity="0.6" d="M15.2382 32.2579C-2.47719 12.8693 29.2857 0.66112 43.2242 2.1174C43.9783 2.19618 44.5915 2.7445 44.7235 3.49104C46.9668 16.1847 35.4158 54.3413 15.2382 32.2579Z" fill="black"/>
<path opacity="0.2" fill-rule="evenodd" clip-rule="evenodd" d="M25.7734 5H35.0004C38.7717 5 40.6573 5 41.8289 6.17157C43.0004 7.34315 43.0004 9.22877 43.0004 13V20.038C44.7922 13.777 45.4177 7.41647 44.7239 3.49104C44.592 2.7445 43.9787 2.19618 43.2247 2.1174C38.5623 1.63028 31.9056 2.67204 25.7734 5Z" fill="black"/>
<path opacity="0.6" d="M15.2741 45.365C15.7518 46.0418 16.6878 46.2032 17.3646 45.7254C18.0413 45.2477 18.2027 44.3118 17.725 43.635L15.2741 45.365ZM41.404 8.69666C42.0649 8.19715 42.1957 7.25646 41.6962 6.59556C41.1967 5.93467 40.256 5.80383 39.5951 6.30334L41.404 8.69666ZM29.5995 31.5385C29.8969 32.3117 30.7648 32.6974 31.538 32.4C32.3112 32.1026 32.6969 31.2347 32.3995 30.4615L29.5995 31.5385ZM14.7874 16.0151C13.9673 16.1322 13.3974 16.892 13.5146 17.7121C13.6317 18.5322 14.3915 19.1021 15.2116 18.9849L14.7874 16.0151ZM23.9995 8.5C23.1711 8.5 22.4995 9.17157 22.4995 10C22.4995 10.8284 23.1711 11.5 23.9995 11.5V8.5ZM36.595 20.5267C36.8859 21.3024 37.7505 21.6954 38.5262 21.4045C39.3019 21.1136 39.6949 20.249 39.404 19.4733L36.595 20.5267ZM17.725 43.635C16.3674 41.7118 15.8097 39.9667 15.718 38.394C15.6257 36.8114 15.9996 35.2996 16.6624 33.8446C18.0366 30.8279 20.4332 28.4122 22.1773 26.2007L19.8217 24.343C18.36 26.1964 15.5066 29.1449 13.9323 32.601C13.1208 34.3824 12.5957 36.3842 12.7231 38.5686C12.851 40.7629 13.6316 43.0382 15.2741 45.365L17.725 43.635ZM21.9976 26.3916C21.8055 26.5628 21.6865 26.5478 21.8906 26.5026C22.0329 26.471 22.2631 26.4416 22.5728 26.4394C23.1894 26.435 24.011 26.5389 24.8892 26.8392C26.614 27.429 28.531 28.7603 29.5995 31.5385L32.3995 30.4615C30.9681 26.7397 28.3017 24.8356 25.8598 24.0006C24.6547 23.5885 23.4972 23.4327 22.5512 23.4395C22.0797 23.4429 21.6328 23.4868 21.2412 23.5737C20.9114 23.6468 20.4019 23.7952 20.0015 24.152L21.9976 26.3916ZM22.434 25.7103C22.5777 25.24 22.687 24.3912 22.687 23.4567C22.687 22.4931 22.5719 21.2845 22.1674 20.1126C21.7608 18.9344 21.0311 17.7122 19.7552 16.8819C18.4654 16.0425 16.8068 15.7266 14.7874 16.0151L15.2116 18.9849C16.6922 18.7734 17.5753 19.0426 18.1189 19.3963C18.6762 19.759 19.0715 20.3378 19.3316 21.0913C19.5938 21.851 19.687 22.7047 19.687 23.4568C19.687 23.8268 19.6644 24.1544 19.6346 24.4099C19.6197 24.5375 19.6037 24.6419 19.5891 24.7205C19.5735 24.8049 19.5634 24.8388 19.565 24.8334L22.434 25.7103ZM22.1773 26.2007C25.0713 22.5311 29.344 18.4189 31.9817 16.1337L30.0173 13.8663C27.3018 16.219 22.8763 20.4697 19.8217 24.343L22.1773 26.2007ZM31.9817 16.1337C33.3932 14.9108 35.7378 13.059 37.7536 11.4954C38.7565 10.7175 39.6696 10.0174 40.3321 9.51177C40.6632 9.259 40.9316 9.05494 41.1169 8.9142C41.2096 8.84384 41.2816 8.78931 41.3303 8.75244C41.3546 8.73401 41.3731 8.71999 41.3855 8.71062C41.3917 8.70593 41.3964 8.7024 41.3994 8.70007C41.401 8.6989 41.4021 8.69803 41.4029 8.69746C41.4033 8.69718 41.4035 8.69697 41.4037 8.69683C41.4038 8.69677 41.4039 8.69672 41.4039 8.69669C41.4039 8.69666 41.404 8.69666 40.4995 7.5C39.5951 6.30334 39.595 6.30337 39.595 6.30342C39.5949 6.30347 39.5948 6.30354 39.5947 6.30362C39.5945 6.30379 39.5942 6.30404 39.5937 6.30436C39.5929 6.305 39.5916 6.30595 39.59 6.30719C39.5867 6.30967 39.5818 6.31335 39.5754 6.31819C39.5627 6.32787 39.5437 6.3422 39.519 6.36095C39.4694 6.39846 39.3966 6.45367 39.303 6.52474C39.1157 6.66689 38.8453 6.87256 38.5118 7.12711C37.845 7.63611 36.9255 8.3411 35.9149 9.12493C33.904 10.6848 31.4985 12.583 30.0173 13.8663L31.9817 16.1337ZM32.4787 15.2491C32.5584 14.7758 32.4528 14.3329 32.3591 14.0416C32.2533 13.7126 32.0957 13.377 31.9085 13.0522C31.5329 12.4004 30.9791 11.6903 30.2723 11.0315C28.8581 9.71337 26.717 8.5 23.9995 8.5V11.5C25.782 11.5 27.2243 12.2917 28.2268 13.2261C28.7283 13.6935 29.0911 14.1716 29.3093 14.5501C29.419 14.7405 29.4776 14.8805 29.5032 14.9603C29.541 15.0777 29.4823 14.9767 29.5203 14.7509L32.4787 15.2491ZM31.6539 16.3497C31.3581 16.4932 31.1604 16.4435 31.3319 16.4548C31.4192 16.4605 31.578 16.4828 31.8033 16.5385C32.2496 16.6489 32.847 16.8635 33.4801 17.2018C34.7615 17.8865 36.015 18.9799 36.595 20.5267L39.404 19.4733C38.4841 17.0201 36.5709 15.4519 34.894 14.5558C34.0479 14.1037 33.2182 13.7981 32.5238 13.6263C32.1788 13.5409 31.839 13.4816 31.5285 13.4612C31.3022 13.4463 30.8076 13.426 30.3452 13.6503L31.6539 16.3497Z" fill="black"/>
</svg>

<svg xmlns="http://www.w3.org/2000/svg" width="48" height="48" fill="none" viewBox="0 0 48 48">
  <path fill="#000" d="M15.238 32.258C-2.477 12.869 29.286.66 43.224 2.118a1.681 1.681 0 011.5 1.373c2.243 12.694-9.308 50.85-29.486 28.767z" opacity=".6"/>
  <path fill="#000" fill-rule="evenodd" d="M25.773 5H35c3.772 0 5.657 0 6.829 1.172C43 7.343 43 9.229 43 13v7.038c1.792-6.261 2.418-12.622 1.724-16.547a1.681 1.681 0 00-1.5-1.374C38.563 1.63 31.907 2.672 25.775 5z" clip-rule="evenodd" opacity=".2"/>
  <path fill="#000" d="M15.274 45.365a1.5 1.5 0 102.451-1.73l-2.45 1.73zm26.13-36.668a1.5 1.5 0 00-1.809-2.394l1.809 2.394zM29.599 31.538a1.5 1.5 0 002.8-1.076l-2.8 1.076zM14.787 16.015a1.5 1.5 0 10.425 2.97l-.425-2.97zM24 8.5a1.5 1.5 0 000 3v-3zm12.595 12.027a1.5 1.5 0 102.809-1.054l-2.809 1.054zm-18.87 23.108c-1.358-1.923-1.915-3.668-2.007-5.241-.092-1.583.282-3.094.944-4.55 1.375-3.016 3.771-5.432 5.515-7.643l-2.355-1.858c-1.462 1.853-4.315 4.802-5.89 8.258-.811 1.781-1.336 3.783-1.209 5.968.128 2.194.909 4.47 2.551 6.796l2.451-1.73zm4.273-17.243c-.193.17-.312.156-.107.11.142-.031.372-.06.682-.063a7.18 7.18 0 012.316.4c1.725.59 3.642 1.921 4.71 4.7l2.8-1.078c-1.43-3.721-4.097-5.625-6.54-6.46a10.17 10.17 0 00-3.308-.562 6.344 6.344 0 00-1.31.135c-.33.073-.84.221-1.24.578l1.997 2.24zm.436-.682c.144-.47.253-1.319.253-2.253 0-.964-.115-2.172-.52-3.344-.406-1.179-1.136-2.4-2.412-3.231-1.29-.84-2.948-1.155-4.968-.867l.425 2.97c1.48-.212 2.363.058 2.907.411.557.363.953.942 1.213 1.695.262.76.355 1.614.355 2.366 0 .37-.023.697-.052.953-.015.128-.031.232-.046.31-.015.085-.026.119-.024.113l2.869.877zm-.257.49c2.894-3.669 7.167-7.781 9.805-10.066l-1.965-2.268c-2.715 2.353-7.14 6.604-10.195 10.477l2.355 1.858zm9.805-10.066c1.411-1.223 3.756-3.075 5.772-4.639a423.592 423.592 0 013.632-2.784c.006-.005.01-.009.013-.01l.004-.004L40.5 7.5a2074.354 2074.354 0 00-.905-1.196l-.004.003-.015.011-.056.043a153.655 153.655 0 00-1.007.766c-.667.51-1.587 1.214-2.597 1.998-2.011 1.56-4.416 3.458-5.898 4.741l1.965 2.268zm.497-.885c.08-.473-.026-.916-.12-1.207a5.208 5.208 0 00-.45-.99 8.921 8.921 0 00-1.637-2.02C28.858 9.712 26.717 8.5 24 8.5v3c1.782 0 3.224.792 4.227 1.726a5.94 5.94 0 011.082 1.324c.11.19.169.33.194.41.038.118-.02.017.017-.21l2.959.5zm-.825 1.1c-.296.144-.494.095-.322.106.087.006.246.028.471.084a7.51 7.51 0 011.677.663c1.282.684 2.535 1.778 3.115 3.325l2.809-1.054c-.92-2.453-2.833-4.021-4.51-4.917a10.495 10.495 0 00-2.37-.93 5.807 5.807 0 00-.995-.165c-.227-.015-.721-.035-1.184.19l1.309 2.699z" opacity=".6"/>
</svg>
